X:1
T:Un doulx ian ian
T:Un doulx ian ian
T:Cornelius Canis
C:Cornelius Canis
%%score [ 1 2 3 4 ]
L:1/8
Q:1/4=120
M:2/2
K:F
V:1 treble nm="Soprano" snm="S"
V:2 treble nm="Alto" snm="A"
V:3 treble-8 nm="Tenor" snm="T"
V:4 bass nm="Bass" snm="B"
V:1
 G2 BA GABc | d2 A2 f2 ff | ecdc B4 | A4 z2 A2 | c2 A4 G2 | A2 G2 g2 gg | fedf e2 d2- | %7
w: Ung doulx ian ian u- ne ves-|pre- e trou- va au|coing d'u- ne ru- el-|le, d'u-|ne ru- *|el- le, trou- va au|coing d'u- ne ru- el- le,|
 d2 cB AGAB | c2 BA Bc d2- | d2 c2 d4 | z4 A2 BA | GABc d2 A2 | z fff ecdc | B4 A4- | A4 z2 d2 | %15
w: _ trou- va au coing d'une ru-|el- * * * * *|* * le|u- ne fil-|let- te'as- sez ru- se- e,|du jeu d'a- mours luy fist re-|ques- te|_ du|
 d2 d2 c2 z2 | g2 gg fedc | B2 A3 G G2- |"^#" G2 F2 G3 A | B4 Addd | ccdc B2 A2 | z AAA G2 F2 | %22
w: jeu d'a- mours,|du jeu d'a- mours luy fist re-|ques- * * *||* te, si luy don-|na pour sa de- fec- te,|si luy don- na pour|
 E2 F2 D2 d2- |"^#" d2 c2 d2 B2 | B2 B2 AGAB | c2 d4 c2- | c2 B4 A2 | B4 z4 | z2 A2 BGdB | %29
w: sa de- fec- *|* * te con-|gie du court _ _ _|_ sur ce|_ def- *|fault,|di- sant va va doul-|
 cd B2 Adcc | B2 A2 z4 | z GBG ddcd | B2 AB c2 d2 | A2 d4 c2 | d2 B2 B2 B2 | c3 B AGFG | %36
w: ce lan- cet- te, doul- ce lan-|cet- te,|di- sant va va doul- ce lan-|cet- te, [doul- ce lan-|cet- * *|te] car tu na|pas ce qu'il _ _ _|
 A2 B2 A2 G2- |"^#" G2 F2 G2 B2 | B2 B2 c3 B |"^b" AGFG A2 B2 | A2 G4 F2 | G8 |] %42
w: _ _ _ _|* me fault, car|tu na pas ce|qu'il _ _ _ _ _|_ _ me|fault.|
V:2
 z8 | D2 FE DEFG | A2 D2 G2 GG | FEDC D2 C2 | z EFE DCDE | F2 D2 z4 | z DDD CA,DC | B,2 A,2 z4 | %8
w: |Ung doulx ian ian u- ne ves-|pre- e trou- va au|coing d'u- ne ru- el- le|trou- va au coing d'u- ne ru-|el- le|trou- va au coing d'u- ne ru-|el- le|
 E2 FE DEFG | A3 G FE D2- | DCDE F2 D2 | z4 z DFE | DEFG A2 D2 | G2 GG FEDC | D2 C2 z EFE | %15
w: u- ne fil- let- te'as- sez ru-|se- * * * *|* * * * * e,|u- ne fil-|let- te'as- sez ru- se- e,|du jeu d'a- mours luy fist re-|ques- te du jeu d'a-|
 DEFG A2 D2 | z2 G,2 A,2 F,2 | F3 F F2 E2 | D4 z4 | z2 D2 DEFG | A3 G F4 | E2 z2 D2 DD | %22
w: mours luy fist re- ques- te|[du jeu d'a-|mours luy fist re-|queste]|si luy don- na pour|sa de- fec-|te, si luy don-|
 CA,DC B,4 | A,4 z2 F2 | G2 G2 C3 D | E2 D2 F2 F2 | D2 E2 F4 | D2 z D FD G2 | z8 | A,2 B,G, D2 z2 | %30
w: na pour sa de- fec-|te con-|gie du court- *|* sur ce def-||fault di- sant va va||di- sant va va|
 z DEC GGFG | E2 D2 z DEC | GGFG E2 D2 | z2 D2 A3 A | F2 G2 G,2 G2 | G2 G2 F4- |"^b" F2 F2 E2 C2 | %37
w: di- sant va va doul- ce lan-|cet- te, di- sant va|va doul- ce lan- cet- te|doul- ce lan-|cet- * te car|tu na pas|_ ce qu'il _|
 D4 B,4 | z2 G2 G2 G2 | F6 F2 | E2 C2 D4 | D8 |] %42
w: me fault,|car tu na|pas ce|qu'il _ me|fault.|
V:3
 z8 | z8 | A2 BA GABc | d2 A2 f2 ff | ecdc B4 | AABA GABc | d2 A2 a2 aa | gfag f2 d2 | a4 gffe | %9
w: ||Ung doulx ian ian u- ne ves-|pre- e trou- va au|coing d'u- ne ru- el-|le, trou- va au coing d'u- ne ru-|el- le, trou- va au|coing d'u- ne ru- el- *||
 e4 dABA | GABc d2 A2- | A2 GF GGdc | f2 d2 z ABA | GABc d2 A2 | f2 ff ecde | f2 d2 z ABA | %16
w: * le u- ne fil-|let- te'as- sez ru- se- *|* * * e, u- ne fil-|let- te u- ne fil-|let- te'as- sez ru- se- e,|du jeu d'a- mours luy fist re-|ques- te u- ne fil-|
 GABc d2 A2 | d2 dd cABc | A4 G4 | g2 gg fedd | e2 d2 z ddd | cAdc B2 A2 | a2 aa gfed | e4 d2 d2 | %24
w: let- te'as- sez ru- se- e,|du jeu d'a- mours luy fist re-|ques- te,|si luy don- na pour sa de-|fec- te si luy don-|na pour sa de- fec- te,|si luy don- na pour sa de-|fec- te con-|
 d2 d2 f2 F2 | G2 B4 A2 | B3 c dB c2 | B4 z4 | d2 cA gefg | efd g2 fgG | BG c2 z2 z d | %31
w: gie du court sur|ce def- *||fault,|di- sant va doul- ce lan- cet-|cet- te, lan- cet- * te di-|sant va va, di-|
 ecge fg e2 | d2 d2 ecgg | f2 g2 e4 | d2 d2 d2 d2 | _e3 d cB A2 | d4 cBAG | A4 G2 d2 | %38
w: sant va va doul- ce lan- cet-|te, di- sant va va doul-|ce lan- cet-|te car tu na|pas _ _ _ _|ce qu'il _ _ _|me fault, car|
 d2 d2 _e3 d |"^b" cB A2 d4 |"^b" cBAG A4 | G8 |] %42
w: tu n'a pas _|_ _ _ ce|qu'il _ _ _ me|fault.|
V:4
 z8 | z8 | z8 | D,2 F,E, D,E,F,G, | A,2 D,2 G,2 G,G, | F,D,G,F, E,4 | D,4 z4 | z4 D2 DD | %8
w: |||Ung doulx ian ian u- ne ves-|pre- e trou- va au|coing d'u- ne ru- el-|le,|trou- va- au|
 CA,DC B,4 | A,4 z4 | G,2 G,G, F,D,G,F, | E,4 D,4 | z8 | z4 D,2 F,E, | D,E,F,G, A,2 D,2 | %15
w: coing d'u- ne ru- el-|le,|trou- va au cong d'u- ne ru-|el- le||u- ne fil-|let- te'as- sez ru- se- e,|
 B,2 B,B, A,F,G,F, | E,4 D,4 | z2 D,2 F,F,G,C, | D,4 z2 G,2 | G,A,B,C DC B,2 | A,2 D,2 D,E,F,G, | %21
w: du jeu d'a- mours luy fist re-|ques- te|[luy fist re- ques- *|te] si|luy don- na pour sa de- fec-|te, si luy don- na pour|
 A,2 F,2 G,2 D,2 | z8 | z2 A,2 B,4 | G,4 F,3 E,/D,/ | C,2 B,,2 z2 F,2 | G,2 G,2 F,4 | %27
w: sa de- fec- te||con gie|du court _ _|_ _ sur|ce def- fault|
 z G,B,G, DB,CD | B,2 A,2 z4 | z4 D,2 E,C, | G,2 z A, B,G,DB, |"^#" CC B,4 A,A, | B,G,DD CA,B,C | %33
w: di- sant va va doul- ce lan-|cet- te,|di- sant va|va, di- sant va va doul-|ce lan- cet- te di-|sant va va,- di- sant va- va doul-|
 D2 B,2 A,4 | D,2 G,2 G,2 G,2 | C,2 C,2 F,3 E, |"^#""^b""^b" D,C, B,,2 C,2 E,2 | D,4 z2 G,2 | %38
w: ce lan- cet-|te car tu na|pas ce qu'il _|_ _ _ _ me|fault, ar|
 G,2 G,2 C,2 C,2 | F,3 E, D,C, B,,2 | C,2 E,2 D,4 | G,8 |] %42
w: tu na pas ce|qu'il _ _ _ _|_ _ me|fault.|

